X:1
T:Mr Charles Forbes Yr. of New and Edinglassie.  Reel.
C:William Marshall
R:Reel
S:Marshall 1845 coll.
Z:Jack Campin, May 2000 (provisional version)
M:C|
L:1/8
K:F Minor
C|:~F2FG   A2GF |GEGB  eBGE| ~F2FG   A2 Ac|G<EBG  F/F/F ~F2 :|
  (~fg)fe (cf)af|ecBe  GEBG|(~fg)fe (cf)af|e>cBG  F/F/F (F=e)|
    fagb   afgd |e>cBe GEBG|  AcBd   cf=eg|a<fg=e f/f/f ~f2 |]
